X: 10
T:Hey Diddle Dis, Longborough 2
M:6/8
L:1/8
A:Longborough
P:A(AB)6
K:D
P:A
|:dcd e2c|dcB ABc|dcd BAG|F2E D3:|
P:B
|:EFG A2D|EFG ABc|dcd BAG|F2E D3:|
